X:1
T: Swimming in the Gutter
C:
R:Jig
Q:180
K:F
M:6/8
L:1/16
|:d6 A2F2A2|d6 A2F2A2|d2^c2d2 f2e2d2|e2b2a2 g2f2e2|
d6 A2F2A2|d6 A2F2A2|d2e2f2 g2a2g2|1f2d2d2 d6:|2f2d2d2 d2c2B2|
|:A2c2f2 f2e2f2|a2c'2a2 f2c2f2|d2b2d2 c2a2c2|B2a2g2 e2c2B2|
A2c2f2 f2e2f2|a2c'2a2 f2c2f2|d2b2d2 c2a2c2|1e2d2e2 f2c2B2:|2e2d2e2 f6||
